symbols/web/bluetooth_drive/materialsymbolssharp/bluetooth_drive_wght500_20px.svg

<svg xmlns="http://www.w3.org/2000/svg" height="20" width="20"><path d="M5.5 13.292q.521 0 .885-.365.365-.365.365-.885 0-.521-.365-.886-.364-.364-.885-.364t-.885.364q-.365.365-.365.886 0 .52.365.885.364.365.885.365Zm7.479 0q.521 0 .886-.365.364-.365.364-.885 0-.521-.364-.886-.365-.364-.886-.364t-.885.364q-.365.365-.365.886 0 .52.365.885.364.365.885.365ZM1.542 17.667V9.938L3.625 4h8.937v1.979H5.021l-.729 2.229h8.27v1.938H3.521v3.896h11.458v-3.896h1.979v7.521h-2.833v-1.646h-9.75v1.646Zm14.125-8.605V5.979l-1.896 1.875-.625-.646 2.312-2.333-2.312-2.292.625-.625 1.896 1.875V.729h.416l2.396 2.438-1.771 1.708 1.771 1.792-2.396 2.395Zm.875-5.229.708-.666-.708-.709Zm0 3.563.708-.729-.708-.688Zm-13.021 2.75v3.896Z"/></svg>

<svg xmlns="http://www.w3.org/2000/svg" height="20" width="20"><path d="M5.5 13.292Q6.021 13.292 6.385 12.927Q6.75 12.562 6.75 12.042Q6.75 11.521 6.385 11.156Q6.021 10.792 5.5 10.792Q4.979 10.792 4.615 11.156Q4.25 11.521 4.25 12.042Q4.25 12.562 4.615 12.927Q4.979 13.292 5.5 13.292ZM12.979 13.292Q13.5 13.292 13.865 12.927Q14.229 12.562 14.229 12.042Q14.229 11.521 13.865 11.156Q13.5 10.792 12.979 10.792Q12.458 10.792 12.094 11.156Q11.729 11.521 11.729 12.042Q11.729 12.562 12.094 12.927Q12.458 13.292 12.979 13.292ZM1.542 17.667V9.938L3.625 4H12.562V5.979H5.021L4.292 8.208H12.562V10.146H3.521V14.042H14.979V10.146H16.958V17.667H14.125V16.021H4.375V17.667ZM15.667 9.062V5.979L13.771 7.854L13.146 7.208L15.458 4.875L13.146 2.583L13.771 1.958L15.667 3.833V0.729H16.083L18.479 3.167L16.708 4.875L18.479 6.667L16.083 9.062ZM16.542 3.833 17.25 3.167 16.542 2.458ZM16.542 7.396 17.25 6.667 16.542 5.979ZM3.521 10.146V14.042Z"/></svg>
